docs/images/wip2.svg

<?xml version="1.0" encoding="UTF-8"?>
<!-- Generated by Pixelmator Pro 3.6.11 -->
<svg width="500" height="120" viewBox="0 0 500 120" xmlns="http://www.w3.org/2000/svg">
    <path id="Path" fill="#1a2733" stroke="none" d="M 100.919998 58.355 L 100.919998 50.525002 L 87.879997 50.525002 L 87.879997 58.355 L 79.305 58.355 L 79.305 11.220001 L 42.68 11.220001 L 42.68 34.770004 L 34.105 34.770004 L 34.105 26.940002 L 21.065001 26.940002 L 21.065001 34.770004 L 11.24 34.770004 L 11.24 110.650002 L 110.754997 110.635002 L 110.754997 58.355 L 100.93 58.355 Z M 78.050003 105.614998 L 12.485 105.614998 L 12.485 83.220001 L 78.055 83.220001 L 78.055 105.614998 Z M 109.495003 81.970001 L 43.93 81.970001 L 43.93 59.605 L 109.5 59.605 L 109.5 81.970001 Z M 89.125 51.775002 L 99.665001 51.775002 L 99.665001 58.355 L 89.125 58.355 L 89.125 51.775002 Z M 43.93 12.470001 L 78.055 12.470001 L 78.055 34.770004 L 43.93 34.770004 L 43.93 12.470001 Z M 22.309999 28.190002 L 32.849998 28.190002 L 32.849998 34.770004 L 22.309999 34.770004 L 22.309999 28.190002 Z M 12.485 36.020004 L 78.055 36.020004 L 78.055 58.355 L 12.485 58.355 L 12.485 36.020004 Z M 12.485 59.605 L 42.68 59.605 L 42.68 81.970001 L 12.485 81.970001 L 12.485 59.605 Z M 109.5 105.644997 L 79.305 105.644997 L 79.305 83.220001 L 109.5 83.220001 L 109.5 105.644997 Z"/>
    <text id="Work-in-Progress" xml:space="preserve" x="130.244264" y="74" font-family="BentonSans" font-size="39.4955" font-weight="700" fill="#1a2733" letter-spacing="-0.425">Work in Progress...</text>
</svg>

<svg xmlns="http://www.w3.org/2000/svg" width="500" height="120"><path fill="#1a2733" d="M100.92 58.355v-7.83H87.88v7.83h-8.575V11.22H42.68v23.55h-8.575v-7.83h-13.04v7.83H11.24v75.88l99.515-.015v-52.28h-9.825Zm-22.87 47.26H12.485V83.22h65.57v22.395Zm31.445-23.645H43.93V59.605h65.57V81.97Zm-20.37-30.195h10.54v6.58h-10.54zM43.93 12.47h34.125v22.3H43.93zM22.31 28.19h10.54v6.58H22.31zm-9.825 7.83h65.57v22.335h-65.57zm0 23.585H42.68V81.97H12.485zm97.015 46.04H79.305V83.22H109.5z"/><text xml:space="preserve" x="130.244" y="74" fill="#1a2733" font-family="BentonSans" font-size="39.495" font-weight="700" letter-spacing="-.425">Work in Progress...</text></svg>
